img/carbon_data-categorical.svg

<svg width="64" height="64" viewBox="0 0 64 64" fill="none" xmlns="http://www.w3.org/2000/svg">
<path d="M16 60C9.384 60 4 54.616 4 48C4 41.384 9.384 36 16 36C22.616 36 28 41.384 28 48C28 54.616 22.616 60 16 60ZM16 40C11.588 40 8 43.588 8 48C8 52.412 11.588 56 16 56C20.412 56 24 52.412 24 48C24 43.588 20.412 40 16 40ZM44 28H20C19.646 27.9999 19.2984 27.9059 18.9926 27.7275C18.6868 27.5492 18.4339 27.2928 18.2596 26.9847C18.0853 26.6766 17.9959 26.3278 18.0006 25.9738C18.0052 25.6198 18.1037 25.2734 18.286 24.97L30.29 4.964C30.676 4.32 31.338 4 32 4C32.662 4 33.324 4.32 33.71 4.964L45.714 24.97C45.8963 25.2734 45.9948 25.6198 45.9994 25.9738C46.0041 26.3278 45.9147 26.6766 45.7404 26.9847C45.5661 27.2928 45.3132 27.5492 45.0074 27.7275C44.7016 27.9059 44.354 27.9999 44 28ZM23.532 24H40.468L32 9.888L23.532 24Z" fill="#424674"/>
<path d="M38 60H58C58.5304 60 59.0391 59.7893 59.4142 59.4142C59.7893 59.0391 60 58.5304 60 58V38C60 37.4696 59.7893 36.9609 59.4142 36.5858C59.0391 36.2107 58.5304 36 58 36H38C37.4696 36 36.9609 36.2107 36.5858 36.5858C36.2107 36.9609 36 37.4696 36 38V58C36 58.5304 36.2107 59.0391 36.5858 59.4142C36.9609 59.7893 37.4696 60 38 60Z" fill="#F2F2F6"/>
</svg>

<svg xmlns="http://www.w3.org/2000/svg" width="64" height="64" fill="none"><path fill="#424674" d="M16 60C9.384 60 4 54.616 4 48s5.384-12 12-12 12 5.384 12 12-5.384 12-12 12m0-20c-4.412 0-8 3.588-8 8s3.588 8 8 8 8-3.588 8-8-3.588-8-8-8m28-12H20a2 2 0 0 1-1.714-3.03L30.29 4.964A1.97 1.97 0 0 1 32 4c.662 0 1.324.32 1.71.964L45.714 24.97A2 2 0 0 1 44 28m-20.468-4h16.936L32 9.888z"/><path fill="#F2F2F6" d="M38 60h20a2 2 0 0 0 2-2V38a2 2 0 0 0-2-2H38a2 2 0 0 0-2 2v20a2 2 0 0 0 2 2"/></svg>
